svg/fluentui-system-icons/ic_fluent_image_multiple_48_filled.svg

<svg width="48" height="48" viewBox="0 0 48 48" fill="none" xmlns="http://www.w3.org/2000/svg">
<path d="M10.75 5C7.57436 5 5 7.57436 5 10.75V32.25C5 33.3921 5.33298 34.4564 5.90715 35.3512L18.7853 22.9023C20.0159 21.7127 21.9583 21.6815 23.2265 22.8309L37.0741 35.3802C37.6598 34.4795 38 33.4045 38 32.25V10.75C38 7.57436 35.4256 5 32.25 5H10.75ZM35.2863 37.1339L21.5477 24.6833C21.2551 24.4181 20.8068 24.4253 20.5228 24.6998L7.68114 37.1134C8.56917 37.675 9.62163 38 10.75 38H32.25C33.3646 38 34.4051 37.6829 35.2863 37.1339ZM30 16C30 17.1046 29.1046 18 28 18C26.8954 18 26 17.1046 26 16C26 14.8954 26.8954 14 28 14C29.1046 14 30 14.8954 30 16ZM15.2496 42.5C13.2784 42.5 11.5389 41.5081 10.5029 39.9962C10.5849 39.9987 10.6671 40 10.7496 40H32.2496C36.5299 40 39.9996 36.5302 39.9996 32.25V10.75C39.9996 10.6675 39.9984 10.5852 39.9958 10.5033C41.5077 11.5393 42.4996 13.2788 42.4996 15.25V32.25C42.4996 37.9109 37.9106 42.5 32.2496 42.5H15.2496Z" fill="#212121"/>
</svg>

<svg xmlns="http://www.w3.org/2000/svg" width="48" height="48"><path d="M10.75 5A5.75 5.75 0 0 0 5 10.75v21.5c0 1.142.333 2.206.907 3.101l12.878-12.449a3.25 3.25 0 0 1 4.442-.071l13.847 12.55A5.725 5.725 0 0 0 38 32.25v-21.5A5.75 5.75 0 0 0 32.25 5h-21.5Zm24.536 32.134-13.738-12.45a.75.75 0 0 0-1.025.016L7.68 37.113c.888.562 1.94.887 3.069.887h21.5a5.723 5.723 0 0 0 3.036-.866ZM30 16a2 2 0 1 1-4 0 2 2 0 0 1 4 0ZM15.25 42.5a5.744 5.744 0 0 1-4.747-2.504c.082.003.164.004.247.004h21.5A7.75 7.75 0 0 0 40 32.25v-21.5c0-.082-.002-.165-.004-.247A5.744 5.744 0 0 1 42.5 15.25v17c0 5.66-4.59 10.25-10.25 10.25h-17Z"/></svg>
